src/lib/assets/logos/logo-dora.svg

<svg width="55" height="60" viewBox="0 0 55 60" fill="none" xmlns="http://www.w3.org/2000/svg">
<path fill-rule="evenodd" clip-rule="evenodd" d="M2.3734 -0.000244141H28.0629C42.9403 -0.000244141 55.0008 12.0127 55 26.8306V33.1719C55 47.9884 42.941 59.9998 28.0659 59.9998H2.3734C1.06246 59.9998 0 58.9415 0 57.6357V2.36379C0 1.05802 1.06246 -0.000244141 2.3734 -0.000244141ZM10.3113 29.2734C11.3045 40.9795 25.3725 47.2841 25.706 47.4319H25.7068C25.7113 47.4333 25.7151 47.4333 25.7188 47.4319C26.0569 47.2818 41.1723 40.5123 41.1723 27.9661C41.1723 19.5068 34.3706 12.6682 25.9033 12.5669C16.8216 12.4582 9.54629 20.259 10.3113 29.2734ZM29.5055 31.7408C31.5491 29.6115 31.5491 26.3175 29.5055 24.2849C27.4657 22.2494 24.0607 22.2494 22.0209 24.2849C19.9773 26.3167 19.9773 29.7083 22.0209 31.7408C24.0607 33.7763 27.4657 33.7763 29.5055 31.7408Z" fill="#5B12EB"/>
</svg>

<svg xmlns="http://www.w3.org/2000/svg" width="55" height="60" fill="none">
    <path fill="#5B12EB" fill-rule="evenodd" d="M2.373 0h25.69C42.94 0 55 12.013 55 26.83v6.342C55 47.988 42.941 60 28.066 60H2.373A2.369 2.369 0 0 1 0 57.636V2.364A2.369 2.369 0 0 1 2.373 0Zm7.938 29.273c.994 11.707 15.061 18.011 15.395 18.159a.018.018 0 0 0 .013 0c.338-.15 15.453-6.92 15.453-19.466 0-8.46-6.801-15.298-15.269-15.4-9.081-.108-16.357 7.693-15.592 16.707Zm19.195 2.468c2.043-2.13 2.043-5.424 0-7.456-2.04-2.036-5.445-2.036-7.485 0-2.044 2.032-2.044 5.423 0 7.456 2.04 2.035 5.445 2.035 7.485 0Z" clip-rule="evenodd"/>
</svg>
